X: 39181
T: Swing Swang
R: reel
M: 4/4
K: Gmajor
g>ec>A^G>AE>A|[CF]>[EA][A,D]>[CF] [Dd]>FA>[Ff]|[^Gg]>Be>d c>dB>c|A2 ^G2 A2 (3EF=G|
g>ec>A^G>AE>A|C>AA,C D>FA>F|^G>Be>d c>dB>c|A2 ^G2 A2 (3EF=G|
g>ec>A^G>AE>A|F>AD>F d>FA>f|^g>Be>d c>dB>c|A2 ^G2 A2 (3EF=G|

